icons/svg/memory.svg

﻿<?xml version="1.0" encoding="utf-8"?>
<!DOCTYPE svg PUBLIC "-//W3C//DTD SVG 1.1//EN" "http://www.w3.org/Graphics/SVG/1.1/DTD/svg11.dtd">
<svg xmlns="http://www.w3.org/2000/svg" xmlns:xlink="http://www.w3.org/1999/xlink" version="1.1" baseProfile="full" width="24" height="24" viewBox="0 0 24.00 24.00" enable-background="new 0 0 24.00 24.00" xml:space="preserve">
	<path fill="#000000" fill-opacity="1" stroke-width="0.2" stroke-linejoin="round" d="M 16.9994,16.9981L 6.9994,16.9981L 6.9994,6.99807L 16.9994,6.99807M 20.9994,10.9981L 20.9994,8.99807L 18.9994,8.99807L 18.9994,6.99807C 18.9994,5.89406 18.1034,4.99807 16.9994,4.99807L 14.9994,4.99807L 14.9994,2.99807L 12.9994,2.99807L 12.9994,4.99807L 10.9994,4.99807L 10.9994,2.99807L 8.9994,2.99807L 8.9994,4.99807L 6.9994,4.99807C 5.8944,4.99807 4.9994,5.89406 4.9994,6.99807L 4.9994,8.99807L 2.9994,8.99807L 2.9994,10.9981L 4.9994,10.9981L 4.9994,12.9981L 2.9994,12.9981L 2.9994,14.9981L 4.9994,14.9981L 4.9994,16.9981C 4.9994,18.1031 5.8944,18.9981 6.9994,18.9981L 8.9994,18.9981L 8.9994,20.9981L 10.9994,20.9981L 10.9994,18.9981L 12.9994,18.9981L 12.9994,20.9981L 14.9994,20.9981L 14.9994,18.9981L 16.9994,18.9981C 18.1034,18.9981 18.9994,18.1031 18.9994,16.9981L 18.9994,14.9981L 20.9994,14.9981L 20.9994,12.9981L 18.9994,12.9981L 18.9994,10.9981M 12.9994,12.9981L 10.9994,12.9981L 10.9994,10.9981L 12.9994,10.9981M 14.9994,8.99807L 8.9994,8.99807L 8.9994,14.9981L 14.9994,14.9981L 14.9994,8.99807 Z "/>
</svg>

<svg xmlns="http://www.w3.org/2000/svg" version="1.1" baseProfile="full" width="24" height="24" viewBox="0 0 24.00 24.00" xml:space="preserve"><path fill="#000" fill-opacity="1" stroke-width=".2" stroke-linejoin="round" d="M17 16.998H7v-10h10m4 4v-2h-2v-2c0-1.104-.897-2-2-2h-2v-2h-2v2h-2v-2H9v2H7c-1.106 0-2 .896-2 2v2H3v2h2v2H3v2h2v2c0 1.105.894 2 2 2h2v2h2v-2h2v2h2v-2h2c1.103 0 2-.895 2-2v-2h2v-2h-2v-2m-6 2h-2v-2h2m2-2H9v6h6v-6z"/></svg>
